media/costumes/X-glow.svg

<svg width="82" height="79" xmlns="http://www.w3.org/2000/svg"><path fill="#0CC" d="M75.58 70.5c-2.4 1.65-5.27 2.6-8.3 2.76-.42.03-.83.03-1.24 0-1.49-.08-4.08-.06-7.43.08-1.92.24-4.37.37-7.6.38-.26.04-.59.09-.99.16-2.51.42-4.38.53-6.08.41a12.213 12.213 0 0 1-8.11 3.97c-.1.01-.19.01-.29.02-.53.03-1.06.04-1.57.04-3.27 0-6.27-.61-8.9-1.82-.06-.02-.12-.05-.18-.08-.25-.08-.97-.29-2.44-.6-1.42-.23-3.44-.57-6.09-1.03-1.33-.22-2.75-.45-4.2-.68-.4-.06-.79-.15-1.18-.26C4.53 72.08.35 66.95.35 60.79c0-1.65.33-3.3.97-4.9.43-1.06 1.02-2.05 1.75-2.93 1.14-1.36 2.91-3.23 5.61-4.34 2.65-1.16 5.55-1.76 8.63-1.77.87-1.6 1.16-2.05 1.43-2.46.41-.61 1.14-1.67 2.91-4.08-.83-1.1-1.72-2.29-2.68-3.57-.04-.06-.07-.11-.11-.16-.91-1.27-2.24-3.08-3.96-5.41-.4-.02-.77-.04-1.12-.08l-.27-.03C3.34 29.79.89 22.73.33 20.14.11 19.1 0 18.07 0 17.06c0-4.85 2.47-9.25 6.76-11.74 2.5-1.46 5.36-2.32 8.47-2.57.29-.02.58-.03.87-.03 1.08 0 2.15-.03 3.18-.08h.12c1.44-.05 3.59-.16 6.44-.31.39-.06.81-.15 1.24-.24.31-.07.63-.12.94-.16 2.11-.26 3.89-.33 5.33-.24 2.17.11 4.16.68 5.88 1.63 2.08-1.3 4.61-2.14 7.56-2.52 2.96-.37 6.19-.54 9.95-.54.48 0 1.78-.02 5.16-.16.07-.01.13-.01.2-.01C64.6.03 66.5 0 67.91 0c.47 0 .93.03 1.39.09 2.58.32 6.28 1.66 9.3 6.14 1.26 1.86 2.98 5.53 1.68 10.61-1.04 4.54-3.67 7.03-5.43 8.23-2.37 1.65-5.24 2.46-8.76 2.46-.6 0-1.22-.03-1.87-.07-2.17 3.17-4.72 6.95-7.62 11.33 1.56 1.95 3.32 4.18 5.3 6.69h.6l4.09-.17c.27-.01.54-.01.8 0 8.27.27 11.62 4.88 12.88 7.61.05.09.09.19.13.29.49 1.13.84 2.28 1.05 3.42 1.05 5.42-1.18 10.71-5.87 13.87z"/><path fill="#FFF" d="M70.64 58.674c.233 1.115-.177 2.023-1.232 2.727-.763.528-1.671.822-2.727.88-1.994-.117-5.014-.088-9.06.088-1.525.235-3.93.352-7.213.352-.234 0-.968.104-2.199.309-1.231.206-2.198.308-2.902.308-2.639 0-3.753-1.261-3.343-3.782.88-1.056 2.023-1.686 3.431-1.892 1.407-.204 2.785-.396 4.135-.571-1.643-2.228-5.073-6.45-10.292-12.666-1.643 1.759-3.549 4.397-5.717 7.916a806.869 806.869 0 0 1-4.398 7.125c.704.646 2.257 1.174 4.662 1.583 1.816.294 2.902 1.262 3.254 2.902-.059-.176-.234.089-.527.792 0 .235-.03.559-.088.968-.294.998-.792 1.525-1.495 1.583-2.111.118-3.87-.146-5.278-.791-.879-.469-2.609-.968-5.189-1.495-1.407-.234-3.489-.586-6.245-1.057a863.254 863.254 0 0 0-4.31-.703c-1.702-.469-2.552-1.289-2.552-2.463 0-.233.059-.498.177-.792.585-.703 1.055-1.113 1.407-1.231 2.169-.996 4.778-1.172 7.828-.527.938.176 1.729.264 2.375.264.527-.527 1.319-1.759 2.375-3.694 1.349-2.521 2.14-3.958 2.375-4.311.938-1.407 3.459-4.837 7.564-10.291-1.877-2.345-4.428-5.688-7.652-10.027-1.174-1.641-3.05-4.192-5.63-7.652-1.231-1.584-1.965-2.375-2.199-2.375h-2.374c-1.231.059-2.142.059-2.728 0-2.287-.286-3.548-1.057-3.782-2.316-.294-1.371.102-2.37 1.188-3 1.085-.63 2.36-1 3.826-1.116 1.231 0 2.463-.027 3.694-.085a473.34 473.34 0 0 0 7.213-.344 41.105 41.105 0 0 0 2.375-.439c1.407-.176 2.521-.233 3.343-.176 1.465.059 2.199.851 2.199 2.375 0 .997-.295 1.847-.88 2.551-.646.234-1.481.455-2.507.659a73.74 73.74 0 0 1-4.002.66c-.176.411.264 1.262 1.319 2.551 1.523 1.935 2.345 2.99 2.463 3.166.996 1.584 2.287 3.314 3.87 5.19a726.45 726.45 0 0 1 3.782 4.75c2.169-2.463 4.398-5.395 6.685-8.797l5.102-7.916c.176-.233.265-.586.265-1.056a9.45 9.45 0 0 0-1.319-.088c-.353 0-.836.044-1.451.132-.616.088-1.042.132-1.276.132-1.055 0-2.053-.645-2.99-1.935-.352-1.817 1.056-2.932 4.222-3.343 2.404-.293 5.248-.439 8.532-.439.997 0 2.873-.059 5.63-.177 2.342-.06 4.189-.09 5.538-.09.469.06.997.528 1.584 1.407.292.411.321 1.027.088 1.848-.177.88-.499 1.467-.97 1.759-.646.471-1.995.616-4.049.44-1.35-.117-3.404-.088-6.162.088-3.64 5.165-8.774 12.794-15.405 22.888 2.585 3.162 6.435 7.993 11.549 14.491l.879 1.41c.469.705.938 1.087 1.407 1.145h5.891l4.311-.176c1.817.06 2.901.471 3.253 1.231.175.411.292.792.352 1.143z"/></svg>

<svg version="1.1" width="82" height="79" xmlns="http://www.w3.org/2000/svg" xmlns:xlink="http://www.w3.org/1999/xlink">
  <!-- Exported by Scratch - http://scratch.mit.edu/ -->
  <g id="ID0.2443972434848547">
    <g id="ID0.37392420740798116">
      <g id="ID0.11921940511092544">
        <path id="ID0.6013165418989956" fill="#00CCCC" d="M 75.580 70.500 C 73.180 72.150 70.310 73.100 67.280 73.260 C 66.860 73.290 66.450 73.290 66.040 73.260 C 64.550 73.180 61.960 73.200 58.610 73.340 C 56.690 73.580 54.240 73.710 51.010 73.720 C 50.750 73.760 50.420 73.810 50.020 73.880 C 47.510 74.300 45.640 74.410 43.940 74.290 C 41.860 76.570 39.030 78 35.830 78.260 C 35.730 78.270 35.640 78.270 35.540 78.280 C 35.010 78.310 34.480 78.320 33.970 78.320 C 30.700 78.320 27.700 77.710 25.070 76.500 C 25.010 76.480 24.950 76.450 24.890 76.420 C 24.640 76.340 23.920 76.130 22.450 75.820 C 21.030 75.590 19.010 75.250 16.360 74.790 C 15.030 74.570 13.610 74.340 12.160 74.110 C 11.760 74.050 11.370 73.960 10.980 73.850 C 4.530 72.080 0.350 66.950 0.350 60.790 C 0.350 59.140 0.680 57.490 1.320 55.890 C 1.750 54.830 2.340 53.840 3.070 52.960 C 4.210 51.600 5.980 49.730 8.680 48.620 C 11.330 47.460 14.230 46.860 17.310 46.850 C 18.180 45.250 18.470 44.800 18.740 44.390 C 19.150 43.780 19.880 42.720 21.650 40.310 C 20.820 39.210 19.930 38.020 18.970 36.740 C 18.930 36.680 18.900 36.630 18.860 36.580 C 17.950 35.310 16.620 33.500 14.900 31.170 C 14.500 31.150 14.130 31.130 13.780 31.090 C 13.690 31.080 13.600 31.070 13.510 31.060 C 3.340 29.790 0.890 22.730 0.330 20.140 C 0.110 19.100 0 18.070 0 17.060 C 0 12.210 2.470 7.810 6.760 5.320 C 9.260 3.860 12.120 3 15.230 2.750 C 15.520 2.730 15.810 2.720 16.100 2.720 C 17.180 2.720 18.250 2.690 19.280 2.640 L 19.400 2.640 C 20.840 2.590 22.990 2.480 25.840 2.330 C 26.230 2.270 26.650 2.180 27.080 2.090 C 27.390 2.020 27.710 1.970 28.020 1.930 C 30.130 1.670 31.910 1.600 33.350 1.690 C 35.520 1.800 37.510 2.370 39.230 3.320 C 41.310 2.020 43.840 1.180 46.790 0.800 C 49.750 0.430 52.980 0.260 56.740 0.260 C 57.220 0.260 58.520 0.240 61.900 0.100 C 61.970 0.090 62.030 0.090 62.100 0.090 C 64.600 0.030 66.500 0 67.910 0 C 68.380 0 68.840 0.030 69.300 0.090 C 71.880 0.410 75.580 1.750 78.600 6.230 C 79.860 8.090 81.580 11.760 80.280 16.840 C 79.240 21.380 76.610 23.870 74.850 25.070 C 72.480 26.720 69.610 27.530 66.090 27.530 C 65.490 27.530 64.870 27.500 64.220 27.460 C 62.050 30.630 59.500 34.410 56.600 38.790 C 58.160 40.740 59.920 42.970 61.900 45.480 L 62.500 45.480 L 66.590 45.310 C 66.860 45.300 67.130 45.300 67.390 45.310 C 75.660 45.580 79.010 50.190 80.270 52.920 C 80.320 53.010 80.360 53.110 80.400 53.210 C 80.890 54.340 81.240 55.490 81.450 56.630 C 82.500 62.050 80.270 67.340 75.580 70.500 Z "/>
      </g>
    </g>
    <g id="ID0.5475822952575982">
      <path id="ID0.31206753151491284" fill="#FFFFFF" d="M 70.640 58.674 C 70.873 59.789 70.463 60.697 69.408 61.401 C 68.645 61.929 67.737 62.223 66.681 62.281 C 64.687 62.164 61.667 62.193 57.621 62.369 C 56.096 62.604 53.691 62.721 50.408 62.721 C 50.174 62.721 49.440 62.825 48.209 63.030 C 46.978 63.236 46.011 63.338 45.307 63.338 C 42.668 63.338 41.554 62.077 41.964 59.556 C 42.844 58.500 43.987 57.870 45.395 57.664 C 46.802 57.460 48.180 57.268 49.530 57.093 C 47.887 54.865 44.457 50.643 39.238 44.427 C 37.595 46.186 35.689 48.824 33.521 52.343 C 32.054 54.748 30.587 57.123 29.123 59.468 C 29.827 60.114 31.380 60.642 33.785 61.051 C 35.601 61.345 36.687 62.313 37.039 63.953 C 36.980 63.777 36.805 64.042 36.512 64.745 C 36.512 64.980 36.482 65.304 36.424 65.713 C 36.130 66.711 35.632 67.238 34.929 67.296 C 32.818 67.414 31.059 67.150 29.651 66.505 C 28.772 66.036 27.042 65.537 24.462 65.010 C 23.055 64.776 20.973 64.424 18.217 63.953 C 16.810 63.720 15.372 63.485 13.907 63.250 C 12.205 62.781 11.355 61.961 11.355 60.787 C 11.355 60.554 11.414 60.289 11.532 59.995 C 12.117 59.292 12.587 58.882 12.939 58.764 C 15.108 57.768 17.717 57.592 20.767 58.237 C 21.705 58.413 22.496 58.501 23.142 58.501 C 23.669 57.974 24.461 56.742 25.517 54.807 C 26.866 52.286 27.657 50.849 27.892 50.496 C 28.830 49.089 31.351 45.659 35.456 40.205 C 33.579 37.860 31.028 34.517 27.804 30.178 C 26.630 28.537 24.754 25.986 22.174 22.526 C 20.943 20.942 20.209 20.151 19.975 20.151 C 19.799 20.151 19.008 20.151 17.601 20.151 C 16.370 20.210 15.459 20.210 14.873 20.151 C 12.586 19.865 11.325 19.094 11.091 17.835 C 10.797 16.464 11.193 15.465 12.279 14.835 C 13.364 14.205 14.639 13.835 16.105 13.719 C 17.336 13.719 18.568 13.692 19.799 13.634 C 21.383 13.576 23.786 13.462 27.012 13.290 C 27.774 13.174 28.566 13.026 29.387 12.851 C 30.794 12.675 31.908 12.618 32.730 12.675 C 34.195 12.734 34.929 13.526 34.929 15.050 C 34.929 16.047 34.634 16.897 34.049 17.601 C 33.403 17.835 32.568 18.056 31.542 18.260 C 30.516 18.466 29.181 18.687 27.540 18.920 C 27.364 19.331 27.804 20.182 28.859 21.471 C 30.382 23.406 31.204 24.461 31.322 24.637 C 32.318 26.221 33.609 27.951 35.192 29.827 C 37.303 32.466 38.563 34.049 38.974 34.577 C 41.143 32.114 43.372 29.182 45.659 25.780 C 47.359 23.141 49.059 20.503 50.761 17.864 C 50.937 17.631 51.026 17.278 51.026 16.808 C 50.615 16.750 50.175 16.720 49.707 16.720 C 49.354 16.720 48.871 16.764 48.256 16.852 C 47.640 16.940 47.214 16.984 46.980 16.984 C 45.925 16.984 44.927 16.339 43.990 15.049 C 43.638 13.232 45.046 12.117 48.212 11.706 C 50.616 11.413 53.460 11.267 56.744 11.267 C 57.741 11.267 59.617 11.208 62.374 11.090 C 64.716 11.030 66.563 11 67.912 11 C 68.381 11.060 68.909 11.528 69.496 12.407 C 69.788 12.818 69.817 13.434 69.584 14.255 C 69.407 15.135 69.085 15.722 68.614 16.014 C 67.968 16.485 66.619 16.630 64.565 16.454 C 63.215 16.337 61.161 16.366 58.403 16.542 C 54.763 21.707 49.629 29.336 42.998 39.430 C 45.583 42.592 49.433 47.423 54.547 53.921 C 54.839 54.391 55.132 54.861 55.426 55.331 C 55.895 56.036 56.364 56.418 56.833 56.476 C 58.123 56.476 60.085 56.476 62.724 56.476 C 64.132 56.418 65.568 56.360 67.035 56.300 C 68.852 56.360 69.936 56.771 70.288 57.531 C 70.463 57.942 70.580 58.323 70.640 58.674 Z "/>
    </g>
  </g>
</svg>
